outputs/icons/action/verified_round.svg

<svg xmlns="http://www.w3.org/2000/svg" width="1200" height="1200" fill="none"><g clip-path="url(#a)"><path fill="#000" d="M1092.425 665.83c32.97-37.695 32.97-93.965 0-131.66l-57.365-65.598a24.98 24.98 0 0 1-6.075-18.751l7.975-86.544c4.6-49.95-28.515-95.58-77.43-106.691l-84.52-19.199a25 25 0 0 1-15.99-11.666l-44.285-74.982c-25.58-43.307-79.345-60.877-125.56-41.031l-79.31 34.056a25 25 0 0 1-19.73 0l-79.42-34.104c-46.169-19.826-99.879-2.314-125.491 40.913l-44.222 74.64a25 25 0 0 1-16.035 11.65l-84.24 18.902c-49.033 11.002-82.286 56.683-77.687 106.725l7.982 86.861a25 25 0 0 1-6.048 18.712l-57.621 66.122c-32.856 37.705-32.806 93.885.117 131.53l57.472 65.715a25 25 0 0 1 6.077 18.745l-8.001 87.07c-4.589 49.94 28.524 95.555 77.431 106.665l84.563 19.21a24.99 24.99 0 0 1 15.971 11.635l44.129 74.48c25.66 43.31 79.513 60.795 125.718 40.82l79.28-34.28a25 25 0 0 1 19.79-.025l79.385 34.09c46.17 19.825 99.88 2.315 125.49-40.915l44.245-74.67a24.99 24.99 0 0 1 15.97-11.635l84.54-19.205c48.915-11.11 82.03-56.74 77.43-106.69l-7.975-86.545a25 25 0 0 1 6.075-18.755zM469 800.5l-119-120c-19.5-19.5-19.5-51 0-70.5l3.5-3.5c19.5-19.5 51.5-19.5 71 0l80.5 81 257.5-258c19.5-19.5 51.5-19.5 71 0l3.5 3.5c19.5 19.5 19.5 51 0 70.5l-296 297c-20.5 19.5-52 19.5-72 0"/></g><defs><clipPath id="a"><path fill="#fff" d="M0 0h1200v1200H0z"/></clipPath></defs></svg>

<svg width="1200" height="1200" viewBox="0 0 1200 1200" fill="none" xmlns="http://www.w3.org/2000/svg"><g clip-path="url(#clip0_223_1915)"><path d="M1092.425 665.83C1125.395 628.135 1125.395 571.865 1092.425 534.17L1035.06 468.572C1030.55 463.418 1028.355 456.64 1028.985 449.821L1036.96 363.277C1041.56 313.327 1008.445 267.697 959.53 256.586L875.01 237.387C868.3 235.864 862.52 231.644 859.02 225.721L814.735 150.739C789.155 107.432 735.39 89.862 689.175 109.708L609.865 143.764C603.565 146.469 596.435 146.469 590.135 143.764L510.715 109.66C464.546 89.834 410.836 107.346 385.224 150.573L341.002 225.213C337.491 231.14 331.689 235.355 324.967 236.863L240.727 255.765C191.694 266.767 158.441 312.448 163.04 362.49L171.022 449.351C171.647 456.152 169.462 462.913 164.974 468.063L107.353 534.185C74.497 571.89 74.547 628.07 107.47 665.715L164.942 731.43C169.449 736.585 171.645 743.36 171.019 750.175L163.018 837.245C158.429 887.185 191.542 932.8 240.449 943.91L325.012 963.12C331.707 964.64 337.483 968.845 340.983 974.755L385.112 1049.235C410.772 1092.545 464.625 1110.03 510.83 1090.055L590.11 1055.775C596.425 1053.045 603.58 1053.035 609.9 1055.75L689.285 1089.84C735.455 1109.665 789.165 1092.155 814.775 1048.925L859.02 974.255C862.515 968.345 868.295 964.14 874.99 962.62L959.53 943.415C1008.445 932.305 1041.56 886.675 1036.96 836.725L1028.985 750.18C1028.355 743.36 1030.55 736.58 1035.06 731.425L1092.425 665.83ZM469 800.5L350 680.5C330.5 661 330.5 629.5 350 610L353.5 606.5C373 587 405 587 424.5 606.5L505 687.5L762.5 429.5C782 410 814 410 833.5 429.5L837 433C856.5 452.5 856.5 484 837 503.5L541 800.5C520.5 820 489 820 469 800.5Z" fill="#1D1E23"/></g><defs><clipPath id="clip0_223_1915"><path width="24" fill="white" d="M0 0H1200V1200H0V0z"/></clipPath></defs></svg>
